plasma/desktoptheme/Adapta/widgets/clock.svg

<svg xmlns="http://www.w3.org/2000/svg" id="svg2" width="208" height="208" version="1">
 <g id="MinuteHand">
  <path id="rect4187" style="opacity:0.00100002;fill:#000000;fill-opacity:1;fill-rule:nonzero;stroke:none;stroke-width:2;stroke-linecap:round;stroke-linejoin:round;stroke-miterlimit:4;stroke-dasharray:none;stroke-opacity:1" d="m 249,137 10,0 0,72 -10,0 z"/>
  <path id="HourHand3" style="fill:#5e5e5e" d="M 252.00392,206 250,142 c 0,-2.20914 1.79088,-4 4,-4 2.20912,0 4,1.79086 4,4 l -2.00392,64 c 0,0 0.004,2 -1.99608,2 -2,0 -1.99608,-2 -1.99608,-2 z"/>
 </g>
 <g id="HourHand">
  <path id="rect4189" style="opacity:0.00100002;fill:#000000;fill-opacity:1;fill-rule:nonzero;stroke:none;stroke-width:2;stroke-linecap:round;stroke-linejoin:round;stroke-miterlimit:4;stroke-dasharray:none;stroke-opacity:1" d="m 266,137 10,0 0,52 -10,0 z"/>
  <path id="MinuteHand3" style="fill:#3f3f3f" d="m 269,186 -2.03125,-44 c 0,-2.20914 1.79088,-4 4,-4 2.20912,0 4,1.79086 4,4 -5.1e-4,0.10431 -0.005,0.20855 -0.0138,0.3125 L 273,186 c 0,0 -0.0312,2 -2.03125,2 -2,0 -1.96875,-2 -1.96875,-2 z"/>
 </g>
 <g id="SecondHand">
  <path id="rect4208" style="opacity:0.00100002;fill:#000000;fill-opacity:1;fill-rule:nonzero;stroke:none;stroke-width:2;stroke-linecap:round;stroke-linejoin:round;stroke-miterlimit:4;stroke-dasharray:none;stroke-opacity:1" d="m 283,137 6,0 0,70 -6,0 z"/>
  <g id="g4210" transform="translate(-4.0644,-2.00021)">
   <path id="rect6212" style="fill:#ff9800;fill-opacity:1;stroke:none" d="m 291.0644,141.00021 0,65.9994 c 0,0 0,1.0006 -1,1.0006 -1,0 -1,-1 -1,-1 l 0,-65.99981 z"/>
   <path id="path6214" style="fill:#ff9800;fill-opacity:1;stroke:none" d="m 289.06331,143.73103 c -0.95585,-0.55323 -1.28286,-1.77611 -0.73003,-2.73207 0.55293,-0.95613 1.77614,-1.28298 2.73218,-0.7301 0.95583,0.55322 1.28286,1.77611 0.72992,2.73224 -0.55283,0.95596 -1.77605,1.2828 -2.73207,0.72993 z"/>
  </g>
 </g>
 <g id="ClockFace">
  <rect id="rect4224" style="opacity:0.05;fill:#000000;fill-opacity:1" width="180" height="180" x="-202" y="-194" rx="90" ry="90" transform="matrix(0,-1,-1,0,0,0)"/>
  <rect id="rect4226" style="opacity:0.05;fill:#000000;fill-opacity:1" width="180" height="180" x="-201" y="-194" rx="90" ry="90" transform="matrix(0,-1,-1,0,0,0)"/>
  <rect id="rect4228" style="opacity:0.05;fill:#000000;fill-opacity:1" width="180" height="180" x="-200" y="-194" rx="90" ry="90" transform="matrix(0,-1,-1,0,0,0)"/>
  <rect id="rect4230" style="opacity:0.05;fill:#000000;fill-opacity:1" width="180" height="180" x="-199" y="-194" rx="90" ry="90" transform="matrix(0,-1,-1,0,0,0)"/>
  <rect id="rect4217" style="opacity:0.00100002;fill:#000000;fill-opacity:1;fill-rule:nonzero;stroke:none;stroke-width:2;stroke-linecap:round;stroke-linejoin:round;stroke-miterlimit:4;stroke-dasharray:none;stroke-opacity:1" width="208" height="208" x="0" y="0"/>
  <rect id="rect4197" style="opacity:0.05;fill:#000000;fill-opacity:1" width="180" height="180" x="-198" y="-194" rx="90" ry="90" transform="matrix(0,-1,-1,0,0,0)"/>
  <rect id="rect4199" style="opacity:0.05;fill:#000000;fill-opacity:1" width="180" height="180" x="-197" y="-194" rx="90" ry="90" transform="matrix(0,-1,-1,0,0,0)"/>
  <rect id="rect4201" style="opacity:0.05;fill:#000000;fill-opacity:1" width="180" height="180" x="-196" y="-194" rx="90" ry="90" transform="matrix(0,-1,-1,0,0,0)"/>
  <rect id="rect4203" style="opacity:0.05;fill:#000000;fill-opacity:1" width="180" height="180" x="-195" y="-194" rx="90" ry="90" transform="matrix(0,-1,-1,0,0,0)"/>
  <rect id="rect4" style="fill:#00bcd4;fill-opacity:1" width="180" height="180" x="-194" y="-194" rx="90" ry="90" transform="matrix(0,-1,-1,0,0,0)"/>
  <circle id="circle4209" style="opacity:0.05;fill:#000000;fill-opacity:1;fill-rule:nonzero;stroke:none;stroke-width:2;stroke-linecap:round;stroke-linejoin:round;stroke-miterlimit:4;stroke-dasharray:none;stroke-opacity:1" cx="104" cy="107" r="70"/>
  <circle id="circle4207" style="opacity:0.05;fill:#000000;fill-opacity:1;fill-rule:nonzero;stroke:none;stroke-width:2;stroke-linecap:round;stroke-linejoin:round;stroke-miterlimit:4;stroke-dasharray:none;stroke-opacity:1" cx="104" cy="106" r="70"/>
  <path id="rect4219" style="opacity:0.2;fill:#ffffff;fill-opacity:1" d="m 104,14 c -49.86,0 -90,40.14 -90,90 0,0.16717 0.005,0.33305 0.0059,0.5 C 14.273783,54.872475 54.307173,15 104,15 c 49.69283,0 89.72622,39.872475 89.99414,89.5 9e-4,-0.16695 0.006,-0.33283 0.006,-0.5 0,-49.86 -40.14,-90 -90,-90 z"/>
  <circle id="circle4205" style="opacity:0.05;fill:#000000;fill-opacity:1;fill-rule:nonzero;stroke:none;stroke-width:2;stroke-linecap:round;stroke-linejoin:round;stroke-miterlimit:4;stroke-dasharray:none;stroke-opacity:1" cx="104" cy="105" r="70"/>
  <circle id="path4224" style="opacity:1;fill:#fefefe;fill-opacity:1;fill-rule:nonzero;stroke:none;stroke-width:2;stroke-linecap:round;stroke-linejoin:round;stroke-miterlimit:4;stroke-dasharray:none;stroke-opacity:1" cx="104" cy="104" r="70"/>
  <path id="path4185" style="fill:#53b64d;fill-opacity:1" d="M 104 45 A 4 4 0 0 0 100 49 A 4 4 0 0 0 104 53 A 4 4 0 0 0 108.00195 49 A 4 4 0 0 0 105.91797 45.490234 A 4 4 0 0 0 104 45 z M 76.15625 52.4375 A 4 4 0 0 0 76.107422 52.441406 A 4 4 0 0 0 75.878906 52.457031 A 4 4 0 0 0 75.707031 52.474609 A 4 4 0 0 0 75.488281 52.513672 A 4 4 0 0 0 75.3125 52.548828 A 4 4 0 0 0 75.103516 52.607422 A 4 4 0 0 0 74.925781 52.664062 A 4 4 0 0 0 74.726562 52.742188 A 4 4 0 0 0 74.558594 52.8125 A 4 4 0 0 0 74.25 52.970703 A 4 4 0 0 0 72.371094 55.455078 A 4 4 0 0 0 72.371094 55.457031 A 4 4 0 0 0 72.253906 56.246094 A 4 4 0 0 0 72.376953 57.435547 A 4 4 0 0 0 72.652344 58.183594 A 4 4 0 0 0 72.652344 58.185547 A 4 4 0 0 0 72.785156 58.435547 A 4 4 0 0 0 75.269531 60.314453 A 4 4 0 0 0 75.271484 60.314453 A 4 4 0 0 0 75.662109 60.392578 A 4 4 0 0 0 75.664062 60.392578 A 4 4 0 0 0 78.25 59.900391 A 4 4 0 0 0 79.441406 58.847656 A 4 4 0 0 0 79.857422 58.166016 A 4 4 0 0 0 80.128906 57.414062 A 4 4 0 0 0 80.207031 57.023438 A 4 4 0 0 0 80.246094 56.224609 A 4 4 0 0 0 80.205078 55.828125 A 4 4 0 0 0 79.847656 54.6875 A 4 4 0 0 0 79.847656 54.685547 A 4 4 0 0 0 79.714844 54.435547 A 4 4 0 0 0 78.330078 53.019531 A 4 4 0 0 0 77.980469 52.830078 A 4 4 0 0 0 77.978516 52.830078 A 4 4 0 0 0 77.611328 52.673828 A 4 4 0 0 0 76.902344 52.492188 A 4 4 0 0 0 76.837891 52.478516 A 4 4 0 0 0 76.835938 52.478516 A 4 4 0 0 0 76.798828 52.474609 A 4 4 0 0 0 76.333984 52.439453 A 4 4 0 0 0 76.15625 52.4375 z M 131.84375 52.4375 A 4 4 0 0 0 128.28516 54.435547 A 4 4 0 0 0 129.75 59.900391 A 4 4 0 0 0 135.21484 58.435547 A 4 4 0 0 0 133.75 52.970703 A 4 4 0 0 0 131.84375 52.4375 z M 56.029297 72.751953 A 4 4 0 0 0 52.470703 74.75 A 4 4 0 0 0 53.935547 80.214844 A 4 4 0 0 0 59.400391 78.75 A 4 4 0 0 0 57.935547 73.285156 A 4 4 0 0 0 56.029297 72.751953 z M 151.9707 72.751953 A 4 4 0 0 0 151.92188 72.755859 A 4 4 0 0 0 151.69336 72.771484 A 4 4 0 0 0 151.52148 72.789062 A 4 4 0 0 0 151.30664 72.826172 A 4 4 0 0 0 151.12305 72.865234 A 4 4 0 0 0 150.93164 72.917969 A 4 4 0 0 0 150.73828 72.978516 A 4 4 0 0 0 150.54102 73.056641 A 4 4 0 0 0 150.37305 73.126953 A 4 4 0 0 0 150.06445 73.285156 A 4 4 0 0 0 148.18555 75.769531 A 4 4 0 0 0 148.18555 75.771484 A 4 4 0 0 0 148.06836 76.560547 A 4 4 0 0 0 148.19141 77.75 A 4 4 0 0 0 148.4668 78.498047 A 4 4 0 0 0 148.59961 78.75 A 4 4 0 0 0 151.08398 80.628906 A 4 4 0 0 0 151.08594 80.628906 A 4 4 0 0 0 151.47656 80.707031 A 4 4 0 0 0 151.47852 80.707031 A 4 4 0 0 0 154.06445 80.214844 A 4 4 0 0 0 155.25586 79.162109 A 4 4 0 0 0 155.67188 78.480469 A 4 4 0 0 0 155.94336 77.728516 A 4 4 0 0 0 156.02148 77.337891 A 4 4 0 0 0 156.06055 76.539062 A 4 4 0 0 0 156.01953 76.142578 A 4 4 0 0 0 155.66211 75.001953 A 4 4 0 0 0 155.66211 75 A 4 4 0 0 0 155.5293 74.75 A 4 4 0 0 0 154.14453 73.333984 A 4 4 0 0 0 153.79492 73.144531 A 4 4 0 0 0 153.79297 73.144531 A 4 4 0 0 0 153.42578 72.988281 A 4 4 0 0 0 152.7168 72.806641 A 4 4 0 0 0 152.65234 72.792969 A 4 4 0 0 0 152.65039 72.792969 A 4 4 0 0 0 152.61328 72.789062 A 4 4 0 0 0 152.14844 72.753906 A 4 4 0 0 0 151.9707 72.751953 z M 48.5 100.5 A 4 4 0 0 0 44.5 104.5 A 4 4 0 0 0 48.5 108.5 A 4 4 0 0 0 52.501953 104.5 A 4 4 0 0 0 50.417969 100.99023 A 4 4 0 0 0 48.5 100.5 z M 159.5 100.5 A 4 4 0 0 0 155.5 104.5 A 4 4 0 0 0 159.5 108.5 A 4 4 0 0 0 163.50195 104.5 A 4 4 0 0 0 161.41797 100.99023 A 4 4 0 0 0 159.5 100.5 z M 55.841797 128.25195 A 4 4 0 0 0 55.792969 128.25586 A 4 4 0 0 0 55.564453 128.27148 A 4 4 0 0 0 55.392578 128.28906 A 4 4 0 0 0 55.177734 128.32617 A 4 4 0 0 0 54.994141 128.36523 A 4 4 0 0 0 54.802734 128.41797 A 4 4 0 0 0 54.609375 128.47852 A 4 4 0 0 0 54.412109 128.55664 A 4 4 0 0 0 54.244141 128.62695 A 4 4 0 0 0 53.935547 128.78516 A 4 4 0 0 0 52.056641 131.26953 A 4 4 0 0 0 52.056641 131.27148 A 4 4 0 0 0 51.939453 132.06055 A 4 4 0 0 0 52.0625 133.25 A 4 4 0 0 0 52.337891 133.99805 A 4 4 0 0 0 52.337891 134 A 4 4 0 0 0 52.470703 134.25 A 4 4 0 0 0 54.955078 136.12891 A 4 4 0 0 0 54.957031 136.12891 A 4 4 0 0 0 55.347656 136.20703 A 4 4 0 0 0 55.349609 136.20703 A 4 4 0 0 0 57.935547 135.71484 A 4 4 0 0 0 59.126953 134.66211 A 4 4 0 0 0 59.542969 133.98047 A 4 4 0 0 0 59.814453 133.22852 A 4 4 0 0 0 59.828125 133.16406 A 4 4 0 0 0 59.931641 132.43945 A 4 4 0 0 0 59.931641 132.03906 A 4 4 0 0 0 59.890625 131.64258 A 4 4 0 0 0 59.533203 130.50195 A 4 4 0 0 0 59.533203 130.5 A 4 4 0 0 0 59.400391 130.25 A 4 4 0 0 0 58.015625 128.83398 A 4 4 0 0 0 57.666016 128.64453 A 4 4 0 0 0 57.664062 128.64453 A 4 4 0 0 0 57.296875 128.48828 A 4 4 0 0 0 56.587891 128.30664 A 4 4 0 0 0 56.523438 128.29297 A 4 4 0 0 0 56.521484 128.29297 A 4 4 0 0 0 56.484375 128.28906 A 4 4 0 0 0 56.019531 128.25391 A 4 4 0 0 0 55.841797 128.25195 z M 152.1582 128.25195 A 4 4 0 0 0 148.59961 130.25 A 4 4 0 0 0 150.06445 135.71484 A 4 4 0 0 0 155.5293 134.25 A 4 4 0 0 0 154.06445 128.78516 A 4 4 0 0 0 152.1582 128.25195 z M 76.34375 148.56641 A 4 4 0 0 0 72.785156 150.56445 A 4 4 0 0 0 74.25 156.0293 A 4 4 0 0 0 79.714844 154.56445 A 4 4 0 0 0 78.25 149.09961 A 4 4 0 0 0 76.34375 148.56641 z M 131.65625 148.56641 A 4 4 0 0 0 131.60742 148.57031 A 4 4 0 0 0 131.37891 148.58594 A 4 4 0 0 0 131.20703 148.60352 A 4 4 0 0 0 130.99219 148.64062 A 4 4 0 0 0 130.80859 148.67969 A 4 4 0 0 0 130.61719 148.73242 A 4 4 0 0 0 130.42383 148.79297 A 4 4 0 0 0 130.22656 148.87109 A 4 4 0 0 0 130.05859 148.94141 A 4 4 0 0 0 129.75 149.09961 A 4 4 0 0 0 127.87109 151.58398 A 4 4 0 0 0 127.87109 151.58594 A 4 4 0 0 0 127.75391 152.375 A 4 4 0 0 0 127.87695 153.56445 A 4 4 0 0 0 128.15234 154.3125 A 4 4 0 0 0 128.28516 154.56445 A 4 4 0 0 0 128.75195 155.21289 A 4 4 0 0 0 130.76953 156.44336 A 4 4 0 0 0 130.77148 156.44336 A 4 4 0 0 0 131.16211 156.52148 A 4 4 0 0 0 131.16406 156.52148 A 4 4 0 0 0 133.75 156.0293 A 4 4 0 0 0 134.94141 154.97656 A 4 4 0 0 0 135.35742 154.29492 A 4 4 0 0 0 135.62891 153.54297 A 4 4 0 0 0 135.64258 153.47852 A 4 4 0 0 0 135.74609 152.75391 A 4 4 0 0 0 135.74609 152.35352 A 4 4 0 0 0 135.70508 151.95703 A 4 4 0 0 0 135.34766 150.81641 A 4 4 0 0 0 135.34766 150.81445 A 4 4 0 0 0 135.21484 150.56445 A 4 4 0 0 0 133.83008 149.14844 A 4 4 0 0 0 133.48047 148.95898 A 4 4 0 0 0 133.47852 148.95898 A 4 4 0 0 0 133.11133 148.80273 A 4 4 0 0 0 132.40234 148.62109 A 4 4 0 0 0 132.33789 148.60742 A 4 4 0 0 0 132.33594 148.60742 A 4 4 0 0 0 132.29883 148.60352 A 4 4 0 0 0 131.83398 148.56836 A 4 4 0 0 0 131.65625 148.56641 z M 104 156 A 4 4 0 0 0 100 160 A 4 4 0 0 0 104 164 A 4 4 0 0 0 108.00195 160 A 4 4 0 0 0 105.91797 156.49023 A 4 4 0 0 0 104 156 z"/>
 </g>
</svg>

<svg xmlns="http://www.w3.org/2000/svg" id="svg2" width="208" height="208" version="1">
 <g id="MinuteHand">
  <path id="rect4187" d="m 249,137 10,0 0,72 -10,0 z" style="opacity:0.00100002;fill:#000000;fill-opacity:1;fill-rule:nonzero;stroke:none;stroke-width:2;stroke-linecap:round;stroke-linejoin:round;stroke-miterlimit:4;stroke-dasharray:none;stroke-opacity:1"/>
  <path id="HourHand3" d="M 252.00392,206 250,142 c 0,-2.20914 1.79088,-4 4,-4 2.20912,0 4,1.79086 4,4 l -2.00392,64 c 0,0 0.004,2 -1.99608,2 -2,0 -1.99608,-2 -1.99608,-2 z" style="fill:#5e5e5e"/>
 </g>
 <g id="HourHand">
  <path id="rect4189" d="m 266,137 10,0 0,52 -10,0 z" style="opacity:0.00100002;fill:#000000;fill-opacity:1;fill-rule:nonzero;stroke:none;stroke-width:2;stroke-linecap:round;stroke-linejoin:round;stroke-miterlimit:4;stroke-dasharray:none;stroke-opacity:1"/>
  <path id="MinuteHand3" d="m 269,186 -2.03125,-44 c 0,-2.20914 1.79088,-4 4,-4 2.20912,0 4,1.79086 4,4 -5.1e-4,0.10431 -0.005,0.20855 -0.0138,0.3125 L 273,186 c 0,0 -0.0312,2 -2.03125,2 -2,0 -1.96875,-2 -1.96875,-2 z" style="fill:#3f3f3f"/>
 </g>
 <g id="SecondHand">
  <path id="rect4208" d="m 283,137 6,0 0,70 -6,0 z" style="opacity:0.00100002;fill:#000000;fill-opacity:1;fill-rule:nonzero;stroke:none;stroke-width:2;stroke-linecap:round;stroke-linejoin:round;stroke-miterlimit:4;stroke-dasharray:none;stroke-opacity:1"/>
  <g id="g4210" transform="translate(-4.0644,-2.00021)">
   <path id="rect6212" d="m 291.0644,141.00021 0,65.9994 c 0,0 0,1.0006 -1,1.0006 -1,0 -1,-1 -1,-1 l 0,-65.99981 z" style="fill:#ff9800;fill-opacity:1;stroke:none"/>
   <path id="path6214" d="m 289.06331,143.73103 c -0.95585,-0.55323 -1.28286,-1.77611 -0.73003,-2.73207 0.55293,-0.95613 1.77614,-1.28298 2.73218,-0.7301 0.95583,0.55322 1.28286,1.77611 0.72992,2.73224 -0.55283,0.95596 -1.77605,1.2828 -2.73207,0.72993 z" style="fill:#ff9800;fill-opacity:1;stroke:none"/>
  </g>
 </g>
 <g id="ClockFace">
  <rect id="rect4224" width="180" height="180" x="-202" y="-194" rx="90" ry="90" transform="matrix(0,-1,-1,0,0,0)" style="opacity:0.02;fill:#000000;fill-opacity:1"/>
  <rect id="rect4226" width="180" height="180" x="-201" y="-194" rx="90" ry="90" transform="matrix(0,-1,-1,0,0,0)" style="opacity:0.02;fill:#000000;fill-opacity:1"/>
  <rect id="rect4228" width="180" height="180" x="-200" y="-194" rx="90" ry="90" transform="matrix(0,-1,-1,0,0,0)" style="opacity:0.02;fill:#000000;fill-opacity:1"/>
  <rect id="rect4230" width="180" height="180" x="-199" y="-194" rx="90" ry="90" transform="matrix(0,-1,-1,0,0,0)" style="opacity:0.02;fill:#000000;fill-opacity:1"/>
  <rect id="rect4217" width="208" height="208" x="0" y="0" style="opacity:0.001;fill:#000000;fill-opacity:1;fill-rule:nonzero;stroke:none;stroke-width:2;stroke-linecap:round;stroke-linejoin:round;stroke-miterlimit:4;stroke-dasharray:none;stroke-opacity:1"/>
  <rect id="rect4197" width="180" height="180" x="-198" y="-194" rx="90" ry="90" transform="matrix(0,-1,-1,0,0,0)" style="opacity:0.02;fill:#000000;fill-opacity:1"/>
  <rect id="rect4199" width="180" height="180" x="-197" y="-194" rx="90" ry="90" transform="matrix(0,-1,-1,0,0,0)" style="opacity:0.02;fill:#000000;fill-opacity:1"/>
  <rect id="rect4201" width="180" height="180" x="-196" y="-194" rx="90" ry="90" transform="matrix(0,-1,-1,0,0,0)" style="opacity:0.02;fill:#000000;fill-opacity:1"/>
  <rect id="rect4203" width="180" height="180" x="-195" y="-194" rx="90" ry="90" transform="matrix(0,-1,-1,0,0,0)" style="opacity:0.02;fill:#000000;fill-opacity:1"/>
  <g id="g865">
   <rect style="fill:#00bcd4;fill-opacity:1" id="rect4" width="180" height="180" x="-194" y="-194" rx="90" ry="90" transform="matrix(0,-1,-1,0,0,0)"/>
   <circle style="opacity:0.05;fill:#000000;fill-opacity:1;fill-rule:nonzero;stroke:none;stroke-width:2;stroke-linecap:round;stroke-linejoin:round;stroke-miterlimit:4;stroke-dasharray:none;stroke-opacity:1" id="circle4209" cx="104" cy="107" r="70"/>
   <circle style="opacity:0.05;fill:#000000;fill-opacity:1;fill-rule:nonzero;stroke:none;stroke-width:2;stroke-linecap:round;stroke-linejoin:round;stroke-miterlimit:4;stroke-dasharray:none;stroke-opacity:1" id="circle4207" cx="104" cy="106" r="70"/>
   <circle style="opacity:0.05;fill:#000000;fill-opacity:1;fill-rule:nonzero;stroke:none;stroke-width:2;stroke-linecap:round;stroke-linejoin:round;stroke-miterlimit:4;stroke-dasharray:none;stroke-opacity:1" id="circle4205" cx="104" cy="105" r="70"/>
   <circle style="opacity:1;fill:#fefefe;fill-opacity:1;fill-rule:nonzero;stroke:none;stroke-width:2;stroke-linecap:round;stroke-linejoin:round;stroke-miterlimit:4;stroke-dasharray:none;stroke-opacity:1" id="path4224" cx="104" cy="104" r="70"/>
   <path style="fill:#53b64d;fill-opacity:1" id="path4185" d="m 104,45 a 4,4 0 0 0 -4,4 4,4 0 0 0 4,4 4,4 0 0 0 4.00195,-4 4,4 0 0 0 -2.08398,-3.509766 A 4,4 0 0 0 104,45 Z m -27.84375,7.4375 a 4,4 0 0 0 -0.04883,0.0039 4,4 0 0 0 -0.228516,0.01563 4,4 0 0 0 -0.171875,0.01758 4,4 0 0 0 -0.21875,0.03906 4,4 0 0 0 -0.175781,0.03516 4,4 0 0 0 -0.208984,0.05859 4,4 0 0 0 -0.177735,0.05664 4,4 0 0 0 -0.199219,0.07813 4,4 0 0 0 -0.167968,0.07031 4,4 0 0 0 -0.308594,0.158203 4,4 0 0 0 -1.878906,2.484375 4,4 0 0 0 0,0.002 4,4 0 0 0 -0.117188,0.789063 4,4 0 0 0 0.123047,1.189453 4,4 0 0 0 0.275391,0.748047 4,4 0 0 0 0,0.002 4,4 0 0 0 0.132812,0.25 4,4 0 0 0 2.484375,1.878906 4,4 0 0 0 0.002,0 4,4 0 0 0 0.390625,0.07813 4,4 0 0 0 0.002,0 4,4 0 0 0 2.585938,-0.492187 4,4 0 0 0 1.191406,-1.052735 4,4 0 0 0 0.416016,-0.68164 4,4 0 0 0 0.271484,-0.751954 4,4 0 0 0 0.07813,-0.390624 4,4 0 0 0 0.03906,-0.798829 4,4 0 0 0 -0.04102,-0.396484 4,4 0 0 0 -0.357422,-1.140625 4,4 0 0 0 0,-0.002 4,4 0 0 0 -0.132812,-0.25 4,4 0 0 0 -1.384766,-1.416016 4,4 0 0 0 -0.349609,-0.189453 4,4 0 0 0 -0.002,0 4,4 0 0 0 -0.367188,-0.15625 4,4 0 0 0 -0.708984,-0.18164 4,4 0 0 0 -0.06445,-0.01367 4,4 0 0 0 -0.002,0 4,4 0 0 0 -0.03711,-0.0039 4,4 0 0 0 -0.464844,-0.03516 4,4 0 0 0 -0.177734,-0.002 z m 55.6875,0 a 4,4 0 0 0 -3.55859,1.998047 4,4 0 0 0 1.46484,5.464844 4,4 0 0 0 5.46484,-1.464844 A 4,4 0 0 0 133.75,52.970703 4,4 0 0 0 131.84375,52.4375 Z M 56.029297,72.751953 A 4,4 0 0 0 52.470703,74.75 4,4 0 0 0 53.935547,80.214844 4,4 0 0 0 59.400391,78.75 4,4 0 0 0 57.935547,73.285156 4,4 0 0 0 56.029297,72.751953 Z m 95.941403,0 a 4,4 0 0 0 -0.0488,0.0039 4,4 0 0 0 -0.22852,0.01563 4,4 0 0 0 -0.17188,0.01758 4,4 0 0 0 -0.21484,0.03711 4,4 0 0 0 -0.18359,0.03906 4,4 0 0 0 -0.19141,0.05273 4,4 0 0 0 -0.19336,0.06055 4,4 0 0 0 -0.19726,0.07813 4,4 0 0 0 -0.16797,0.07031 4,4 0 0 0 -0.3086,0.158203 4,4 0 0 0 -1.8789,2.484375 4,4 0 0 0 0,0.002 4,4 0 0 0 -0.11719,0.789063 4,4 0 0 0 0.12305,1.189453 4,4 0 0 0 0.27539,0.748047 4,4 0 0 0 0.13281,0.251953 4,4 0 0 0 2.48437,1.878906 4,4 0 0 0 0.002,0 4,4 0 0 0 0.39062,0.07813 4,4 0 0 0 0.002,0 4,4 0 0 0 2.58593,-0.492187 4,4 0 0 0 1.19141,-1.052735 4,4 0 0 0 0.41602,-0.68164 4,4 0 0 0 0.27148,-0.751953 4,4 0 0 0 0.0781,-0.390625 4,4 0 0 0 0.0391,-0.798829 4,4 0 0 0 -0.041,-0.396484 4,4 0 0 0 -0.35742,-1.140625 4,4 0 0 0 0,-0.002 4,4 0 0 0 -0.13281,-0.25 4,4 0 0 0 -1.38477,-1.416016 4,4 0 0 0 -0.34961,-0.189453 4,4 0 0 0 -0.002,0 4,4 0 0 0 -0.36719,-0.15625 4,4 0 0 0 -0.70898,-0.18164 4,4 0 0 0 -0.0645,-0.01367 4,4 0 0 0 -0.002,0 4,4 0 0 0 -0.0371,-0.0039 4,4 0 0 0 -0.46484,-0.03516 4,4 0 0 0 -0.17774,-0.002 z M 48.5,100.5 a 4,4 0 0 0 -4,4 4,4 0 0 0 4,4 4,4 0 0 0 4.001953,-4 4,4 0 0 0 -2.083984,-3.50977 A 4,4 0 0 0 48.5,100.5 Z m 111,0 a 4,4 0 0 0 -4,4 4,4 0 0 0 4,4 4,4 0 0 0 4.00195,-4 4,4 0 0 0 -2.08398,-3.50977 A 4,4 0 0 0 159.5,100.5 Z M 55.841797,128.25195 a 4,4 0 0 0 -0.04883,0.004 4,4 0 0 0 -0.228516,0.0156 4,4 0 0 0 -0.171875,0.0176 4,4 0 0 0 -0.214844,0.0371 4,4 0 0 0 -0.183593,0.0391 4,4 0 0 0 -0.191407,0.0527 4,4 0 0 0 -0.193359,0.0606 4,4 0 0 0 -0.197266,0.0781 4,4 0 0 0 -0.167968,0.0703 4,4 0 0 0 -0.308594,0.15821 4,4 0 0 0 -1.878906,2.48437 4,4 0 0 0 0,0.002 4,4 0 0 0 -0.117188,0.78907 4,4 0 0 0 0.123047,1.18945 4,4 0 0 0 0.275391,0.74805 4,4 0 0 0 0,0.002 4,4 0 0 0 0.132812,0.25 4,4 0 0 0 2.484375,1.87891 4,4 0 0 0 0.002,0 4,4 0 0 0 0.390625,0.0781 4,4 0 0 0 0.002,0 4,4 0 0 0 2.585938,-0.49219 4,4 0 0 0 1.191406,-1.05273 4,4 0 0 0 0.416016,-0.68164 4,4 0 0 0 0.271484,-0.75195 4,4 0 0 0 0.01367,-0.0645 4,4 0 0 0 0.103516,-0.72461 4,4 0 0 0 0,-0.40039 4,4 0 0 0 -0.04102,-0.39648 4,4 0 0 0 -0.357422,-1.14063 4,4 0 0 0 0,-0.002 4,4 0 0 0 -0.132812,-0.25 4,4 0 0 0 -1.384766,-1.41602 4,4 0 0 0 -0.349609,-0.18945 4,4 0 0 0 -0.002,0 4,4 0 0 0 -0.367187,-0.15625 4,4 0 0 0 -0.708984,-0.18164 4,4 0 0 0 -0.06445,-0.0137 4,4 0 0 0 -0.002,0 4,4 0 0 0 -0.03711,-0.004 4,4 0 0 0 -0.464844,-0.0352 4,4 0 0 0 -0.177734,-0.002 z m 96.316403,0 a 4,4 0 0 0 -3.55859,1.99805 4,4 0 0 0 1.46484,5.46484 4,4 0 0 0 5.46485,-1.46484 4,4 0 0 0 -1.46485,-5.46484 4,4 0 0 0 -1.90625,-0.53321 z m -75.81445,20.31446 a 4,4 0 0 0 -3.558594,1.99804 4,4 0 0 0 1.464844,5.46485 4,4 0 0 0 5.464844,-1.46485 4,4 0 0 0 -1.464844,-5.46484 4,4 0 0 0 -1.90625,-0.5332 z m 55.3125,0 a 4,4 0 0 0 -0.0488,0.004 4,4 0 0 0 -0.22851,0.0156 4,4 0 0 0 -0.17188,0.0176 4,4 0 0 0 -0.21484,0.0371 4,4 0 0 0 -0.1836,0.0391 4,4 0 0 0 -0.1914,0.0527 4,4 0 0 0 -0.19336,0.0606 4,4 0 0 0 -0.19727,0.0781 4,4 0 0 0 -0.16797,0.0703 4,4 0 0 0 -0.30859,0.1582 4,4 0 0 0 -1.87891,2.48437 4,4 0 0 0 0,0.002 4,4 0 0 0 -0.11718,0.78906 4,4 0 0 0 0.12304,1.18945 4,4 0 0 0 0.27539,0.74805 4,4 0 0 0 0.13282,0.25195 4,4 0 0 0 0.46679,0.64844 4,4 0 0 0 2.01758,1.23047 4,4 0 0 0 0.002,0 4,4 0 0 0 0.39063,0.0781 4,4 0 0 0 0.002,0 4,4 0 0 0 2.58594,-0.49218 4,4 0 0 0 1.19141,-1.05274 4,4 0 0 0 0.41601,-0.68164 4,4 0 0 0 0.27149,-0.75195 4,4 0 0 0 0.0137,-0.0644 4,4 0 0 0 0.10351,-0.72461 4,4 0 0 0 0,-0.40039 4,4 0 0 0 -0.041,-0.39649 4,4 0 0 0 -0.35742,-1.14062 4,4 0 0 0 0,-0.002 4,4 0 0 0 -0.13282,-0.25 4,4 0 0 0 -1.38476,-1.41601 4,4 0 0 0 -0.34961,-0.18946 4,4 0 0 0 -0.002,0 4,4 0 0 0 -0.36719,-0.15625 4,4 0 0 0 -0.70899,-0.18164 4,4 0 0 0 -0.0645,-0.0137 4,4 0 0 0 -0.002,0 4,4 0 0 0 -0.0371,-0.004 4,4 0 0 0 -0.46485,-0.0352 4,4 0 0 0 -0.17773,-0.002 z M 104,156 a 4,4 0 0 0 -4,4 4,4 0 0 0 4,4 4,4 0 0 0 4.00195,-4 4,4 0 0 0 -2.08398,-3.50977 A 4,4 0 0 0 104,156 Z"/>
  </g>
 </g>
</svg>
